images/web-dev-skill.svg

<svg viewBox="0 0 200 200" xmlns="http://www.w3.org/2000/svg"><g fill="#ffdb57"><path d="m159 105v-67.18a12.44 12.44 0 0 0 -12.44-12.43h-94.56a12.45 12.45 0 0 0 -12.43 12.43v67.18a12.46 12.46 0 0 0 12.43 12.41h34l-3.55 12.44h-8.06v5h49.75v-5h-8.08l-3.55-12.44h34a12.45 12.45 0 0 0 12.49-12.41zm-107-74.64h94.51a7.46 7.46 0 0 1 7.49 7.46v57.18h-109.45v-57.18a7.46 7.46 0 0 1 7.45-7.46zm58.88 99.49h-23.24l3.55-12.44h16.15zm35.63-17.41h-94.51a7.46 7.46 0 0 1 -7.45-7.44v-5h109.45v5a7.46 7.46 0 0 1 -7.48 7.44z"/><path d="m49.52 139.79a2.49 2.49 0 0 0 -2.52 2.49v29.85a2.48 2.48 0 0 0 2.48 2.48h69.64a2.48 2.48 0 0 0 2.49-2.48v-29.85a2.49 2.49 0 0 0 -2.49-2.49zm67.16 29.85h-64.68v-24.87h64.67z"/><path d="m56.98 159.69h4.97v4.97h-4.97z"/><path d="m56.98 149.74h4.97v4.97h-4.97z"/><path d="m66.93 149.74h4.97v4.97h-4.97z"/><path d="m76.88 149.74h4.97v4.97h-4.97z"/><path d="m96.78 149.74h4.97v4.97h-4.97z"/><path d="m86.83 149.74h4.97v4.97h-4.97z"/><path d="m106.73 159.69h4.97v4.97h-4.97z"/><path d="m106.73 149.74h4.97v4.97h-4.97z"/><path d="m66.93 159.69h34.82v4.97h-34.82z"/><path d="m126.62 152.23v10a12.44 12.44 0 0 0 24.88 0v-10a12.44 12.44 0 1 0 -24.88 0zm19.9 0v10a7.46 7.46 0 1 1 -14.92 0v-10a7.46 7.46 0 0 1 14.92 0z"/><path d="m136.57 149.74h4.97v4.97h-4.97z"/><path d="m81.15 62.74h36.2v4.97h-36.2z" transform="matrix(.275134 -.96140589 .96140589 .275134 9.24 142.7)"/><path d="m82.75 79.53 3.18-3.82-12.62-10.53 12.62-10.53-3.18-3.82-14.92 12.44a2.48 2.48 0 0 0 -.32 3.5 2.42 2.42 0 0 0 .32.32z"/><path d="m115.78 79.53 14.92-12.44a2.48 2.48 0 0 0 .32-3.5 2.42 2.42 0 0 0 -.32-.32l-14.92-12.44-3.18 3.82 12.63 10.53-12.63 10.53z"/></g></svg>

<svg id="Layer_1" data-name="Layer 1" xmlns="http://www.w3.org/2000/svg" viewBox="0 0 200 200"><defs><style>.cls-1{fill:#ffdb57;}</style></defs><title>Artboard 1 copy 3skills-icons</title><path class="cls-1" d="M159,105V37.82a12.44,12.44,0,0,0-12.44-12.43H52A12.45,12.45,0,0,0,39.57,37.82V105A12.46,12.46,0,0,0,52,117.41H86l-3.55,12.44H74.39v5h49.75v-5h-8.08l-3.55-12.44h34A12.45,12.45,0,0,0,159,105ZM52,30.36h94.51A7.46,7.46,0,0,1,154,37.82V95H44.55V37.82A7.46,7.46,0,0,1,52,30.36Zm58.88,99.49H87.64l3.55-12.44h16.15Zm35.63-17.41H52A7.46,7.46,0,0,1,44.55,105v-5H154v5A7.46,7.46,0,0,1,146.52,112.44Z"/><path class="cls-1" d="M49.52,139.79A2.49,2.49,0,0,0,47,142.28v29.85a2.48,2.48,0,0,0,2.48,2.48h69.64a2.48,2.48,0,0,0,2.49-2.48V142.28a2.49,2.49,0,0,0-2.49-2.49Zm67.16,29.85H52V144.77h64.67Z"/><rect class="cls-1" x="56.98" y="159.69" width="4.97" height="4.97"/><rect class="cls-1" x="56.98" y="149.74" width="4.97" height="4.97"/><rect class="cls-1" x="66.93" y="149.74" width="4.97" height="4.97"/><rect class="cls-1" x="76.88" y="149.74" width="4.97" height="4.97"/><rect class="cls-1" x="96.78" y="149.74" width="4.97" height="4.97"/><rect class="cls-1" x="86.83" y="149.74" width="4.97" height="4.97"/><rect class="cls-1" x="106.73" y="159.69" width="4.97" height="4.97"/><rect class="cls-1" x="106.73" y="149.74" width="4.97" height="4.97"/><rect class="cls-1" x="66.93" y="159.69" width="34.82" height="4.97"/><path class="cls-1" d="M126.62,152.23v10a12.44,12.44,0,0,0,24.88,0v-10a12.44,12.44,0,1,0-24.88,0Zm19.9,0v10a7.46,7.46,0,1,1-14.92,0v-10a7.46,7.46,0,0,1,14.92,0Z"/><rect class="cls-1" x="136.57" y="149.74" width="4.97" height="4.97"/><rect class="cls-1" x="81.15" y="62.74" width="36.2" height="4.97" transform="translate(9.24 142.7) rotate(-74.03)"/><path class="cls-1" d="M82.75,79.53l3.18-3.82L73.31,65.18,85.93,54.65l-3.18-3.82L67.83,63.27a2.48,2.48,0,0,0-.32,3.5,2.42,2.42,0,0,0,.32.32Z"/><path class="cls-1" d="M115.78,79.53,130.7,67.09a2.48,2.48,0,0,0,.32-3.5,2.42,2.42,0,0,0-.32-.32L115.78,50.83l-3.18,3.82,12.63,10.53L112.6,75.71Z"/></svg>
